**kern	**silbe	**harmony	**chordsym	**phrase	**timestamp	**leadinstrument
*ICvox	*	*M4/4	*M4/4	*	*	*
*E:	*	*E:	*E:	*	*	*
*M4/4	*	*	*	*	*	*
*clefG2	*	*	*	*	*	*
r;	.	1r;	r	.	0	r
=1	=1	=1	=1	=1	=1	=1
*	*	*>A_intro	*>A_intro	*>A_intro	*>A_intro	*>A_intro
1r	.	2EM	E:maj (E G# B)	newline	0.789	guitar
.	.	2C#mm	C#:min7 (C# E G# B)	.	.	guitar
=2	=2	=2	=2	=2	=2	=2
1r	.	2F#mm	F#:min9 (F# A E G#)	.	.	guitar
.	.	2BMm	B:maj6(b7) (B D# F# G# A)	.	.	guitar
=3	=3	=3	=3	=3	=3	=3
1r	.	2EM	E:maj (E G# B)	newline	5.882	guitar
.	.	2C#mm	C#:min7 (C# E G# B)	.	.	guitar
=4	=4	=4	=4	=4	=4	=4
1r	.	2F#mm	F#:min9 (F# A E G#)	.	.	guitar
.	.	2BMm	B:maj6(b7) (B D# F# G# A)	.	.	guitar
=5	=5	=5	=5	=5	=5	=5
1r	.	2EM	E:maj (E G# B)	.	.	guitar
.	.	2C#mm	C#:min7 (C# E G# B)	.	.	guitar
=6	=6	=6	=6	=6	=6	=6
1r	.	2F#mm	F#:min9 (F# A E G#)	.	.	guitar
.	.	2BMm	B:maj6(b7) (B D# F# G# A)	.	.	guitar
=7	=7	=7	=7	=7	=7	=7
*	*	*>B_verse	*>B_verse	*>B_verse	*>B_verse	*>B_verse
8r	.	2EM	E:maj (E G# B)	newline	15.906	voice
8ee	You've	.	.	.	.	.
8cc#	got	.	.	.	.	.
8b	a	.	.	.	.	.
8g#	cute	2C#mm	C#:min7 (C# E G# B)	.	.	voice
8b	way	.	.	.	.	.
8cc#	of	.	.	.	.	.
8g#	talk-	.	.	.	.	.
=8	=8	=8	=8	=8	=8	=8
8f#	_	2F#mm	F#:min9 (F# A E G#)	.	.	voice
4.e	-in	.	.	.	.	.
2r	.	2BMm	B:maj6(b7) (B D# F# G# A)	.	.	voice
=9	=9	=9	=9	=9	=9	=9
8r	.	2EM	E:maj (E G# B)	.	.	voice
8ee	You	.	.	.	.	.
8cc#	got	.	.	.	.	.
8b	the	.	.	.	.	.
8g#	bet-	2C#mm	C#:min7 (C# E G# B)	.	.	voice
8b	-ter	.	.	.	.	.
8cc#	of	.	.	.	.	.
8[b	me	.	.	.	.	.
=10	=10	=10	=10	=10	=10	=10
8b]	_	2F#mm	F#:min9 (F# A E G#)	.	.	voice
8r	.	.	.	.	.	.
4r	.	.	.	.	.	.
2r	.	2BMm	B:maj6(b7) (B D# F# G# A)	.	.	voice
=11	=11	=11	=11	=11	=11	=11
8r	.	2EM	E:maj (E G# B)	newline	25.903	voice
8ee	Just	.	.	.	.	.
8cc#	snap	.	.	.	.	.
8b	your	.	.	.	.	.
8g#	fing-	2C#mm	C#:min7 (C# E G# B)	.	.	voice
8b	-ers	.	.	.	.	.
16cc#	and	.	.	.	.	.
8.ee	I'm	.	.	.	.	.
=12	=12	=12	=12	=12	=12	=12
8g#	walk-	2F#mm	F#:min9 (F# A E G#)	.	.	voice
8f#	_	.	.	.	.	.
4e	-in	.	.	.	.	.
4r	.	2BMm	B:maj6(b7) (B D# F# G# A)	.	.	voice
16e	like	.	.	.	.	.
8.f#	a	.	.	.	.	.
=13	=13	=13	=13	=13	=13	=13
16f#	dog	2EM	E:maj (E G# B)	.	.	voice
16[g#	_	.	.	.	.	.
8g#_	_	.	.	.	.	.
8.g#]	_	.	.	.	.	.
16[cc#	hang-	.	.	.	.	.
8cc#]	_	2C#mm	C#:min7 (C# E G# B)	.	.	voice
8b	-in	.	.	.	.	.
16g#	on	.	.	.	.	.
8f#	your	.	.	.	.	.
16[e	lead	.	.	.	.	.
=14	=14	=14	=14	=14	=14	=14
4e]	_	2F#mm	F#:min9 (F# A E G#)	.	.	voice
4r	.	.	.	.	.	.
2r	.	2BMm	B:maj6(b7) (B D# F# G# A)	.	.	voice
=15	=15	=15	=15	=15	=15	=15
*	*	*>C_prechorus	*>C_prechorus	*>C_prechorus	*>C_prechorus	*>C_prechorus
8r	.	1DM	D:maj (D F# A)	newline	35.848	voice
16r	.	.	.	.	.	.
16A	I'm	.	.	.	.	.
16d	in	.	.	.	.	.
8d	a	.	.	.	.	.
16[f#	spin	.	.	.	.	.
16f#]	_	.	.	.	.	.
16f#	you	.	.	.	.	.
4a	know	.	.	.	.	.
8r	.	.	.	.	.	.
=16	=16	=16	=16	=16	=16	=16
8e	shak-	1EM	E:maj (E G# B)	.	.	voice
8e	-ing	.	.	.	.	.
8e	on	.	.	.	.	.
8e	a	.	.	.	.	.
8g#	string	.	.	.	.	.
16g#	you	.	.	.	.	.
16[b	know	.	.	.	.	.
4b]	_	.	.	.	.	.
=17	=17	=17	=17	=17	=17	=17
*F#:	*	*>D_chorus	*>D_chorus	*>D_chorus	*>D_chorus	*>D_chorus
*	*	*F#:	*F#:	*F#:	*F#:	*F#:
8r	.	2F#M	F#:maj (F# A# C#)	newline	40.844	voice
8a#	You	.	.	.	.	.
8a#	make	.	.	.	.	.
8a#	me	.	.	.	.	.
8.a#	feel	2D#mm	D#:min7 (D# F# A# C#)	.	.	voice
16[a#	like	.	.	.	.	.
8a#]	_	.	.	.	.	.
8[a#	dan-	.	.	.	.	.
=18	=18	=18	=18	=18	=18	=18
8a#]	_	2G#mm	G#:min7 (G# B D# F#)	.	.	voice
8.g#	-cin'	.	.	.	.	.
16c#	I'm	.	.	.	.	.
16d#	gon-	.	.	.	.	.
16c#	-na	.	.	.	.	.
8f#	dance	2C#Mm	C#:7 (C# E# G# B)	.	.	voice
16d#	the	.	.	.	.	.
16[f#	night	.	.	.	.	.
16f#]	_	.	.	.	.	.
16f#	a-	.	.	.	.	.
8c#	-way	.	.	.	.	.
=19	=19	=19	=19	=19	=19	=19
8r	.	2F#M	F#:maj (F# A# C#)	.	.	voice
8a#	You	.	.	.	.	.
8cc#	make	.	.	.	.	.
8a#	me	.	.	.	.	.
8.cc#	feel	2D#mm	D#:min7 (D# F# A# C#)	.	.	voice
16[dd#	like	.	.	.	.	.
8dd#]	_	.	.	.	.	.
8a	dan-	.	.	.	.	.
=20	=20	=20	=20	=20	=20	=20
8g#	_	2G#mm	G#:min7 (G# B D# F#)	.	.	voice
8.f#	-cin'	.	.	.	.	.
16c#	I'm	.	.	.	.	.
16d#	gon-	.	.	.	.	.
16c#	-na	.	.	.	.	.
8f#	dance	2C#Mm	C#:7 (C# E# G# B)	.	.	voice
16d#	the	.	.	.	.	.
16[f#	night	.	.	.	.	.
16f#]	_	.	.	.	.	.
16f#	a-	.	.	.	.	.
8c#	-way	.	.	.	.	.
=21	=21	=21	=21	=21	=21	=21
*F#:	*	*	*	*	*	*
8r	.	2F#M	F#:maj (F# A# C#)	newline	50.782	voice
8a#	You	.	.	.	.	.
8a#	make	.	.	.	.	.
8a#	me	.	.	.	.	.
8.a#	feel	2D#mm	D#:min7 (D# F# A# C#)	.	.	voice
16[a#	like	.	.	.	.	.
8a#]	_	.	.	.	.	.
8[a#	dan-	.	.	.	.	.
=22	=22	=22	=22	=22	=22	=22
8a#]	_	2G#mm	G#:min7 (G# B D# F#)	.	.	voice
4.g#	-cin'	.	.	.	.	.
8r	.	2C#Mm	C#:7 (C# E# G# B)	.	.	voice
16d#	I	.	.	.	.	.
16[f#	feel	.	.	.	.	.
16f#]	_	.	.	.	.	.
8.f#	like	.	.	.	.	.
=23	=23	=23	=23	=23	=23	=23
*E:	*	*E:	*E:	*E:	*E:	*E:
16a	dan-	1F#mm	F#:min7 (F# A C# E)	newline	55.751	voice
8g#	_	.	.	.	.	.
16f#	-cin'	.	.	.	.	.
4r	.	.	.	.	.	.
16a	dan-	.	.	.	.	.
8g#	_	.	.	.	.	.
16f#	-cin'	.	.	.	.	.
4r	.	.	.	.	.	.
=24	=24	=24	=24	=24	=24	=24
8e	dance	1F#mm	F#:min7 (F# A C# E)	.	.	voice
16f#	the	.	.	.	.	.
16[f#	night	.	.	.	.	.
16f#]	_	.	.	.	.	.
16e	a-	.	.	.	.	.
8f#	-way	.	.	.	.	.
8r	.	.	.	.	.	.
8f#	I	.	.	.	.	.
8f#	feel	.	.	.	.	.
8f#	like	.	.	.	.	.
=25	=25	=25	=25	=25	=25	=25
16a	dan-	1BM	B:sus4(b7,9) (B E F# A C#)	.	.	voice
8g#	_	.	.	.	.	.
16f#	-cin'	.	.	.	.	.
4r	.	.	.	.	.	.
16r	.	.	.	.	.	.
16a	dan-	.	.	.	.	.
8g#	_	.	.	.	.	.
8.f#	-cin'	.	.	.	.	.
16[b	ah	.	.	.	.	.
=26	=26	=26	=26	=26	=26	=26
4b_	_	1BM	B:sus4(b7,9) (B E F# A C#)	.	.	voice
16b]	_	.	.	.	.	.
16cc#	_	.	.	.	.	.
8b	_	.	.	.	.	.
16cc#	_	.	.	.	.	.
8.[b	_	.	.	.	.	.
8b]	_	.	.	.	.	.
8r	.	.	.	.	.	.
=27	=27	=27	=27	=27	=27	=27
*	*	*>B_verse	*>B_verse	*>B_verse	*>B_verse	*>B_verse
8r	.	2EM	E:maj (E G# B)	newline	65.527	voice
8ee	Quar-	.	.	.	.	.
8cc#	-ter	.	.	.	.	.
8b	to	.	.	.	.	.
8g#	four	2C#mm	C#:min7 (C# E G# B)	.	.	voice
8b	in	.	.	.	.	.
8cc#	the	.	.	.	.	.
8g	mor-	.	.	.	.	.
=28	=28	=28	=28	=28	=28	=28
8f#	_	2F#mm	F#:min9 (F# A E G#)	.	.	voice
4.e	-ning	.	.	.	.	.
2r	.	2BMm	B:maj6(b7) (B D# F# G# A)	.	.	voice
=29	=29	=29	=29	=29	=29	=29
16r	.	2EM	E:maj (E G# B)	.	.	voice
16b	I	.	.	.	.	.
8ee	ain't	.	.	.	.	.
16cc#	feel-	.	.	.	.	.
8b	-ing	.	.	.	.	.
16[ee	tired	.	.	.	.	.
8ee]	_	2C#mm	C#:min7 (C# E G# B)	.	.	voice
8cc#	no	.	.	.	.	.
8b	no	.	.	.	.	.
8g#	no	.	.	.	.	.
=30	=30	=30	=30	=30	=30	=30
8f#	no	2F#mm	F#:min9 (F# A E G#)	.	.	voice
8e	no	.	.	.	.	.
4r	.	.	.	.	.	.
2r	.	2BMm	B:maj6(b7) (B D# F# G# A)	.	.	voice
=31	=31	=31	=31	=31	=31	=31
8r	.	2EM	E:maj (E G# B)	newline	75.558	voice
8b	just	.	.	.	.	.
8ee	hold	.	.	.	.	.
16b	me	.	.	.	.	.
16[ee	tight	.	.	.	.	.
8ee]	_	2C#mm	C#:min7 (C# E G# B)	.	.	voice
8r	.	.	.	.	.	.
16r	.	.	.	.	.	.
16b	and	.	.	.	.	.
16a	leave	.	.	.	.	.
16[b	on	.	.	.	.	.
=32	=32	=32	=32	=32	=32	=32
16b]	_	2F#mm	F#:min9 (F# A E G#)	.	.	voice
8a	the	.	.	.	.	.
8g#	light	.	.	.	.	.
8e	_	.	.	.	.	.
16r	.	.	.	.	.	.
4r	.	2BMm	B:maj6(b7) (B D# F# G# A)	.	.	voice
4r	.	.	.	.	.	.
=33	=33	=33	=33	=33	=33	=33
8r	.	2EM	E:maj (E G# B)	.	.	voice
16g#	'cause	.	.	.	.	.
8b	I	.	.	.	.	.
8g#	don't	.	.	.	.	.
8.cc#	wan-	.	.	.	.	.
.	.	2C#mm	C#:min7 (C# E G# B)	.	.	voice
8ee	-na	.	.	.	.	.
8.cc#	go	.	.	.	.	.
16[cc#	home	.	.	.	.	.
=34	=34	=34	=34	=34	=34	=34
8cc#]	_	2F#mm	F#:min9 (F# A E G#)	.	.	voice
16dd#	_	.	.	.	.	.
16cc#	_	.	.	.	.	.
4b	_	.	.	.	.	.
4r	.	2BMm	B:maj6(b7) (B D# F# G# A)	.	.	voice
4r	.	.	.	.	.	.
=35	=35	=35	=35	=35	=35	=35
*	*	*>C_prechorus	*>C_prechorus	*>C_prechorus	*>C_prechorus	*>C_prechorus
8r	.	1DM	D:maj (D F# A)	newline	85.589	voice
16r	.	.	.	.	.	.
16d	You	.	.	.	.	.
16d	put	.	.	.	.	.
8d	a	.	.	.	.	.
16[f#	spell	.	.	.	.	.
16f#]	_	.	.	.	.	.
16f#	on	.	.	.	.	.
4a	me	.	.	.	.	.
16r	.	.	.	.	.	.
16d	I'm	.	.	.	.	.
=36	=36	=36	=36	=36	=36	=36
8e	right	1EM	E:maj (E G# B)	.	.	voice
8e	where	.	.	.	.	.
8e	you	.	.	.	.	.
8e	want	.	.	.	.	.
8g#	me	.	.	.	.	.
16g#	to	.	.	.	.	.
16[b	be	.	.	.	.	.
4b]	_	.	.	.	.	.
=37	=37	=37	=37	=37	=37	=37
*F#:	*	*>D_chorus	*>D_chorus	*>D_chorus	*>D_chorus	*>D_chorus
*	*	*F#:	*F#:	*F#:	*F#:	*F#:
8r	.	2F#M	F#:maj (F# A# C#)	newline	90.558	voice
8a#	You	.	.	.	.	.
8a#	make	.	.	.	.	.
8a#	me	.	.	.	.	.
8.a#	feel	2D#mm	D#:min7 (D# F# A# C#)	.	.	voice
16[a#	like	.	.	.	.	.
8a#]	_	.	.	.	.	.
8[a#	dan-	.	.	.	.	.
=38	=38	=38	=38	=38	=38	=38
8a#]	_	2G#mm	G#:min7 (G# B D# F#)	.	.	voice
8.g#	-cin'	.	.	.	.	.
16c#	I'm	.	.	.	.	.
16d#	gon-	.	.	.	.	.
16c#	-na	.	.	.	.	.
8f#	dance	2C#Mm	C#:7 (C# E# G# B)	.	.	voice
16d#	the	.	.	.	.	.
16[f#	night	.	.	.	.	.
16f#]	_	.	.	.	.	.
16f#	a-	.	.	.	.	.
8c#	-way	.	.	.	.	.
=39	=39	=39	=39	=39	=39	=39
8r	.	2F#M	F#:maj (F# A# C#)	.	.	voice
8a#	you	.	.	.	.	.
8a#	make	.	.	.	.	.
8a#	me	.	.	.	.	.
8.cc#	feel	2D#mm	D#:min7 (D# F# A# C#)	.	.	voice
16[a#	like	.	.	.	.	.
8a#]	_	.	.	.	.	.
8[a#	dan-	.	.	.	.	.
=40	=40	=40	=40	=40	=40	=40
8a#]	_	2G#mm	G#:min7 (G# B D# F#)	.	.	voice
8.g#	-cin'	.	.	.	.	.
16c#	I'm	.	.	.	.	.
16d#	gon-	.	.	.	.	.
16c#	-na	.	.	.	.	.
8f#	dance	2C#Mm	C#:7 (C# E# G# B)	.	.	voice
16d#	the	.	.	.	.	.
16[f#	night	.	.	.	.	.
16f#]	_	.	.	.	.	.
16f#	a-	.	.	.	.	.
8c#	-way	.	.	.	.	.
=41	=41	=41	=41	=41	=41	=41
8r	.	2F#M	F#:maj (F# A# C#)	newline	100.659	voice
8a#	You	.	.	.	.	.
8a#	make	.	.	.	.	.
8a#	me	.	.	.	.	.
8.cc#	feel	2D#mm	D#:min7 (D# F# A# C#)	.	.	voice
16[dd#	like	.	.	.	.	.
8dd#]	_	.	.	.	.	.
8[dd#	dan-	.	.	.	.	.
=42	=42	=42	=42	=42	=42	=42
8dd#]	_	2G#mm	G#:min7 (G# B D# F#)	.	.	voice
4.cc#	-cin	.	.	.	.	.
8r	.	2C#Mm	C#:7 (C# E# G# B)	.	.	voice
16d#	I	.	.	.	.	.
16[f#	feel	.	.	.	.	.
16f#]	_	.	.	.	.	.
8.f#	like	.	.	.	.	.
=43	=43	=43	=43	=43	=43	=43
*E:	*	*E:	*E:	*E:	*E:	*E:
16a	dan-	1F#mm	F#:min7 (F# A C# E)	newline	105.591	voice
8g#	_	.	.	.	.	.
16f#	-cin	.	.	.	.	.
4r	.	.	.	.	.	.
16a	dan-	.	.	.	.	.
8g#	_	.	.	.	.	.
16f#	-cin'	.	.	.	.	.
4r	.	.	.	.	.	.
=44	=44	=44	=44	=44	=44	=44
8e	dance	1F#mm	F#:min7 (F# A C# E)	.	.	voice
16f#	the	.	.	.	.	.
16[f#	night	.	.	.	.	.
16f#]	_	.	.	.	.	.
16e	a-	.	.	.	.	.
8f#	-way	.	.	.	.	.
8r	.	.	.	.	.	.
8f#	I	.	.	.	.	.
8f#	feel	.	.	.	.	.
8f#	like	.	.	.	.	.
=45	=45	=45	=45	=45	=45	=45
16a	dan-	1BMm	B:sus4(b7,9) (B E F# A C#)	.	.	voice
8g#	_	.	.	.	.	.
16f#	-cin'	.	.	.	.	.
4r	.	.	.	.	.	.
16a	dan-	.	.	.	.	.
8g#	_	.	.	.	.	.
16f#	-cin'	.	.	.	.	.
4r	.	.	.	.	.	.
=46	=46	=46	=46	=46	=46	=46
8e	dance	1BMm	B:sus4(b7,9) (B E F# A C#)	.	.	voice
16f#	the	.	.	.	.	.
16[f#	night	.	.	.	.	.
16f#]	_	.	.	.	.	.
16e	a-	.	.	.	.	.
8f#	-way	.	.	.	.	.
8r	.	.	.	.	.	.
8b	I	.	.	.	.	.
8b	feel	.	.	.	.	.
8f#	like	.	.	.	.	.
=47	=47	=47	=47	=47	=47	=47
16a	dan-	1F#mm	F#:min7 (F# A C# E)	newline	115.32	voice
8g#	_	.	.	.	.	.
16f#	-cin	.	.	.	.	.
4r	.	.	.	.	.	.
16a	dan-	.	.	.	.	.
8g#	_	.	.	.	.	.
16f#	-cin'	.	.	.	.	.
4r	.	.	.	.	.	.
=48	=48	=48	=48	=48	=48	=48
8e	dance	1F#mm	F#:min7 (F# A C# E)	.	.	voice
16f#	the	.	.	.	.	.
16[f#	night	.	.	.	.	.
16f#]	_	.	.	.	.	.
16e	a-	.	.	.	.	.
8f#	-way	.	.	.	.	.
8r	.	.	.	.	.	.
8f#	I	.	.	.	.	.
8f#	feel	.	.	.	.	.
8f#	like	.	.	.	.	.
=49	=49	=49	=49	=49	=49	=49
16a	dan-	1BMm	B:sus4(b7,9) (B E F# A C#)	.	.	voice
8g#	_	.	.	.	.	.
16f#	-cin'	.	.	.	.	.
4r	.	.	.	.	.	.
16a	dan-	.	.	.	.	.
8g#	_	.	.	.	.	.
16f#	-cin'	.	.	.	.	.
8r	.	.	.	.	.	.
8[b	ah	.	.	.	.	.
=50	=50	=50	=50	=50	=50	=50
4b]	_	1BMm	B:sus4(b7,9) (B E F# A C#)	.	.	voice
16cc#	_	.	.	.	.	.
16b	_	.	.	.	.	.
8cc#	_	.	.	.	.	.
2b	_	.	.	.	.	.
=51	=51	=51	=51	=51	=51	=51
*	*	*>B_instrumental	*>B_instrumental	*>B_instrumental	*>B_instrumental	*>B_instrumental
1r	.	2EM	E:maj (E G# B)	newline	125.028	voice
.	.	2C#mm	C#:min7 (C# E G# B)	.	.	voice
=52	=52	=52	=52	=52	=52	=52
1r	.	2F#mm	F#:min9 (F# A E G#)	.	.	voice
.	.	2BMm	B:maj6(b7) (B D# F# G# A)	.	.	voice
=53	=53	=53	=53	=53	=53	=53
1r	.	2EM	E:maj (E G# B)	.	.	voice
.	.	2C#mm	C#:min7 (C# E G# B)	.	.	voice
=54	=54	=54	=54	=54	=54	=54
1r	.	2F#mm	F#:min9 (F# A E G#)	.	.	voice
.	.	2BMm	B:maj6(b7) (B D# F# G# A)	.	.	voice
=55	=55	=55	=55	=55	=55	=55
1r	.	2EM	E:maj (E G# B)	newline	135.024	voice
.	.	2C#mm	C#:min7 (C# E G# B)	.	.	voice
=56	=56	=56	=56	=56	=56	=56
1r	.	2F#mm	F#:min9 (F# A E G#)	.	.	voice
.	.	2BMm	B:maj6(b7) (B D# F# G# A)	.	.	voice
=57	=57	=57	=57	=57	=57	=57
*	*	*>C_prechorus	*>C_prechorus	*>C_prechorus	*>C_prechorus	*>C_prechorus
8r	.	1DM	D:maj (D F# A)	newline	139.947	voice
8d	and	.	.	.	.	.
8d	if	.	.	.	.	.
8e	you'll	.	.	.	.	.
8f#	let	.	.	.	.	.
8f#	me	.	.	.	.	.
4a	stay	.	.	.	.	.
=58	=58	=58	=58	=58	=58	=58
8r	.	1EM	E:maj (E G# B)	.	.	voice
8e	we'll	.	.	.	.	.
8e	dance	.	.	.	.	.
8f#	our	.	.	.	.	.
8g#	lives	.	.	.	.	.
16g#	a-	.	.	.	.	.
16[b	-way	.	.	.	.	.
4b]	_	.	.	.	.	.
=59	=59	=59	=59	=59	=59	=59
*F#:	*	*>D_chorus	*>D_chorus	*>D_chorus	*>D_chorus	*>D_chorus
*	*	*F#:	*F#:	*F#:	*F#:	*F#:
8r	.	2F#M	F#:maj (F# A# C#)	newline	145.0	voice
8a#	You	.	.	.	.	.
8a#	make	.	.	.	.	.
8a#	me	.	.	.	.	.
8.a#	feel	2D#mm	D#:min7 (D# F# A# C#)	.	.	voice
8.a#	like	.	.	.	.	.
8[a#	dan-	.	.	.	.	.
=60	=60	=60	=60	=60	=60	=60
8a#]	_	2G#mm	G#:min7 (G# B D# F#)	.	.	voice
8.g#	-cin'	.	.	.	.	.
16c#	I	.	.	.	.	.
16d#	wan-	.	.	.	.	.
16c#	-na	.	.	.	.	.
8f#	dance	2C#Mm	C#:7 (C# E# G# B)	.	.	voice
16d#	my	.	.	.	.	.
16[f#	life	.	.	.	.	.
16f#]	_	.	.	.	.	.
16f#	a-	.	.	.	.	.
8c#	-way	.	.	.	.	.
=61	=61	=61	=61	=61	=61	=61
8r	.	2F#M	F#:maj (F# A# C#)	.	.	voice
8a#	you	.	.	.	.	.
8cc#	make	.	.	.	.	.
8a#	me	.	.	.	.	.
8.cc#	feel	2D#mm	D#:min7 (D# F# A# C#)	.	.	voice
16[dd#	like	.	.	.	.	.
8dd#]	_	.	.	.	.	.
8a#	dan-	.	.	.	.	.
=62	=62	=62	=62	=62	=62	=62
8g#	_	2G#mm	G#:min7 (G# B D# F#)	.	.	voice
8.f#	-cin'	.	.	.	.	.
16c#	I	.	.	.	.	.
16d#	wan-	.	.	.	.	.
16c#	-na	.	.	.	.	.
8f#	dance	2C#Mm	C#:7 (C# E# G# B)	.	.	voice
16d#	my	.	.	.	.	.
16[f#	life	.	.	.	.	.
16f#]	_	.	.	.	.	.
16f#	a-	.	.	.	.	.
8c#	-way	.	.	.	.	.
=63	=63	=63	=63	=63	=63	=63
*	*	*>_fadeout	*>_fadeout	*>_fadeout	*>_fadeout	*>_fadeout
8r	.	2F#M	F#:maj (F# A# C#)	newline	154.925	voice
8a#	you	.	.	.	.	.
8cc#	make	.	.	.	.	.
8a#	me	.	.	.	.	.
8.cc#	feel	2D#mm	D#:min7 (D# F# A# C#)	.	.	voice
16[cc#	like	.	.	.	.	.
8cc#]	_	.	.	.	.	.
8[dd#	dan-	.	.	.	.	.
=64	=64	=64	=64	=64	=64	=64
8dd#]	_	2G#mm	G#:min7 (G# B D# F#)	.	.	voice
8.cc#	-cin'	.	.	.	.	.
16c#	I'm	.	.	.	.	.
16d#	gon	.	.	.	.	.
16c#	na	.	.	.	.	.
8f#	dance	2C#Mm	C#:7 (C# E# G# B)	.	.	voice
16d#	my	.	.	.	.	.
16[f#	life	.	.	.	.	.
16f#]	_	.	.	.	.	.
16f#	a	.	.	.	.	.
8c#	way	.	.	.	.	.
=65	=65	=65	=65	=65	=65	=65
8r	.	2F#M	F#:maj (F# A# C#)	.	.	voice
8cc#	you	.	.	.	.	.
8cc#	make	.	.	.	.	.
8dd#	me	.	.	.	.	.
8.ff#	feel	2D#mm	D#:min7 (D# F# A# C#)	.	.	voice
16[dd#	like	.	.	.	.	.
8dd#]	_	.	.	.	.	.
8[dd#	dan-	.	.	.	.	.
=66	=66	=66	=66	=66	=66	=66
8dd#]	_	2G#mm	G#:min7 (G# B D# F#)	.	.	voice
8.cc#	-cin'	.	.	.	.	.
16c#	I'm	.	.	.	.	.
16d#	gon	.	.	.	.	.
16c#	na	.	.	.	.	.
8f#	dance	2C#Mm	C#:7 (C# E# G# B)	.	.	voice
16d#	my	.	.	.	.	.
16[f#	life	.	.	.	.	.
16f#]	_	.	.	.	.	.
16f#	a-	.	.	.	.	.
8c#	-way	.	.	.	.	.
=67	=67	=67	=67	=67	=67	=67
8r	.	2F#M	F#:maj (F# A# C#)	newline	164.906	voice
8a#	You	.	.	.	.	.
8a#	make	.	.	.	.	.
8a#	me	.	.	.	.	.
8.a#	feel	2D#mm	D#:min7 (D# F# A# C#)	.	.	voice
16[a#	like	.	.	.	.	.
8a#]	_	.	.	.	.	.
8[a#	dan-	.	.	.	.	.
=68	=68	=68	=68	=68	=68	=68
8a#]	_	2G#mm	G#:min7 (G# B D# F#)	.	.	voice
8.g#	-cin'	.	.	.	.	.
16c#	I	.	.	.	.	.
16d#	wan-	.	.	.	.	.
16c#	-na	.	.	.	.	.
8f#	dance	2C#Mm	C#:7 (C# E# G# B)	.	.	voice
16d#	my	.	.	.	.	.
16[f#	life	.	.	.	.	.
16f#]	_	.	.	.	.	.
16f#	a-	.	.	.	.	.
8c#	-way	.	.	.	.	.
r;	.	1r;	r	.	170.481	r
r;	.	1r;	r	.	174.341	r
*-	*-	*-	*-	*-	*-	*-
!!!BillboardChartDate: 1977/01/22
!!!BillboardPeak: 1
!!!BillboardWeeksOnChart: 21
!!!COC: Leo Sayer
!!!EMD: Changed stuff written in Gb to F# (closer to E Major). Cut off two measures at end. -Nat
!!!ENC: Nathaniel Condit-Schultz
!!!EST: Awating manual error checking and editing.
!!!OTL: You Make Me Feel Like Dancing
!!!RDF**chordsym: original McGill chord annotation + (implied pitch class set, with bass pitch in first position)
!!!RDF**harmony: **recip + pitch class of root + harmonic quality
!!!RDF**leadinstrument: original McGill primary instrumentation annotation
!!!RDF**phrase: newline = linebreak in original McGill transcription
!!!RDF**timestamp: McGill audio timestamp in seconds
!!!RDT: 2017/01/12/
!!!SampleActualRank: 3
!!!SampleID#: 0986
!!!SampleTargetRank: 3
